dist/svgs/crypto-icons/icons/rby.svg

<?xml version="1.0" encoding="UTF-8" standalone="yes"?>
<svg xmlns="http://www.w3.org/2000/svg" xmlns:xlink="http://www.w3.org/1999/xlink" width="512px" height="512px" viewBox="0 0 384 384" version="1.1">
  <g id="surface1">
    <path style=" stroke:none;fill-rule:nonzero;fill:rgb(0%,0%,0%);fill-opacity:1;" d="M 153.648438 346.9375 C 84.097656 329.734375 32.523438 266.941406 32.523438 192.074219 C 32.523438 117.210938 84.09375 54.417969 153.648438 37.214844 L 153.648438 3.855469 C 65.980469 21.65625 0 99.160156 0 192.074219 C 0 284.988281 65.980469 362.496094 153.648438 380.296875 Z M 179.570312 33.054688 C 183.699219 32.738281 187.863281 32.523438 192.074219 32.523438 C 198.453125 32.523438 204.734375 32.90625 210.914062 33.632812 L 210.914062 0.929688 C 204.714844 0.324219 198.433594 0 192.074219 0 C 187.867188 0 183.707031 0.183594 179.566406 0.453125 L 179.566406 33.054688 Z M 179.570312 33.054688 "/>
    <path style=" stroke:none;fill-rule:nonzero;fill:rgb(0%,0%,0%);fill-opacity:1;" d="M 236.839844 5.300781 L 236.839844 38.917969 C 283.390625 52.511719 321.144531 86.726562 339.507812 131.035156 L 302.945312 131.035156 C 281.394531 91.980469 239.832031 65.519531 192.074219 65.519531 C 122.179688 65.519531 65.519531 122.183594 65.519531 192.074219 C 65.519531 261.964844 122.179688 318.628906 192.074219 318.628906 C 244.859375 318.628906 290.074219 286.308594 309.0625 240.386719 L 344.164062 240.386719 C 328.152344 290.820312 287.769531 330.390625 236.839844 345.257812 L 236.839844 378.847656 C 321.320312 358.671875 384.152344 282.730469 384.152344 192.074219 C 384.152344 101.421875 321.320312 25.476562 236.839844 5.300781 Z M 221.988281 274.324219 L 184.988281 221.769531 L 123.242188 221.769531 L 123.242188 189.480469 L 195.59375 189.480469 C 213.269531 189.480469 219.632812 178.40625 219.632812 165.203125 C 219.632812 152.007812 211.621094 139.988281 193.710938 139.988281 L 123.242188 139.988281 L 123.242188 109.824219 L 197.480469 109.824219 C 221.050781 109.824219 258.285156 120.195312 258.285156 164.027344 C 258.285156 207.863281 225.289062 216.585938 225.289062 216.585938 L 267.710938 274.324219 Z M 221.988281 274.324219 "/>
    <path style=" stroke:none;fill-rule:nonzero;fill:rgb(0%,0%,0%);fill-opacity:1;" d="M 210.914062 350.511719 C 204.660156 351.25 198.371094 351.625 192.074219 351.628906 C 187.863281 351.628906 183.699219 351.414062 179.566406 351.09375 L 179.566406 383.699219 C 183.707031 383.96875 187.867188 384.152344 192.074219 384.152344 C 198.433594 384.152344 204.714844 383.824219 210.914062 383.21875 Z M 210.914062 350.511719 "/>
  </g>
</svg>

<svg xmlns="http://www.w3.org/2000/svg" viewBox="0 0 384 384"><path d="M153.648 346.938C84.098 329.733 32.523 266.94 32.523 192.073c0-74.863 51.57-137.656 121.125-154.86V3.856C65.98 21.656 0 99.16 0 192.075c0 92.913 65.98 170.421 153.648 188.222zM179.57 33.055c4.13-.317 8.293-.532 12.504-.532 6.38 0 12.66.383 18.84 1.11V.93c-6.2-.606-12.48-.93-18.84-.93-4.207 0-8.367.184-12.508.453v32.602zm0 0"/><path d="M236.84 5.3v33.618c46.55 13.594 84.305 47.809 102.668 92.117h-36.563c-21.55-39.055-63.113-65.515-110.87-65.515-69.895 0-126.555 56.664-126.555 126.554S122.18 318.63 192.074 318.63c52.785 0 98-32.32 116.988-78.242h35.102c-16.012 50.433-56.394 90.004-107.324 104.87v33.59c84.48-20.175 147.312-96.117 147.312-186.773 0-90.652-62.832-166.597-147.312-186.773zm-14.852 269.024l-37-52.554h-61.746v-32.29h72.352c17.676 0 24.039-11.074 24.039-24.277 0-13.195-8.012-25.215-25.922-25.215h-70.469v-30.164h74.238c23.57 0 60.805 10.371 60.805 54.203 0 43.836-32.996 52.559-32.996 52.559l42.422 57.738zm0 0"/><path d="M210.914 350.512a161.536 161.536 0 01-18.84 1.117c-4.21 0-8.375-.215-12.508-.535v32.605c4.141.27 8.301.453 12.508.453 6.36 0 12.64-.328 18.84-.933zm0 0"/></svg>
